X:51
T:Mrs MacDonald. RHu.051
S:R.Hughes MS,1823,Whitchurch,Shrops.
A:Whitchurch, Shropshire
Z:Neil Brookes 2006
M:6/8
L:1/8
Q:3/8=110
R:Jig
K:D
e|f>ed dBA|AFA AFA|f>ed d<af|fee e2d/e/|!
f>ed dBA|AFA AFA|d<af ede|f<dd d2::!
G|FAd dfd|FAe ege|FAd daf|feee2f/g/|!
afd dfd|ecA A2G|FAd ede|f<dd d2:|

